X:4062
T:Master McDermott
T:McDermott's Reel
T:Barrel Rafferty
T:Josie McDermott's
O:england
C:Sean Maguire & Liam Donnelly
R:reel
D:Kevin Griffin: Down in Doolin
M:C|
K:D
DF~F2 DEFA|d2fe dB~B2|AF~F2 dFAF|BFAF E2FE|
DF~F2 DEFA|defe dB~B2|AF~F2 dBAF|1 EDEF D2FE:|2 EDEF D2fe||
|:df~f2 dfaf|g2fg agfe|dBBA Bcde|fdgf e2de|
faaf g2fg|agfe dB~B2|AF~F2 dBAF|1 EDEF D2fe:|2 EDEF D2FE||
"variations"
|:DF~F2 DEFA|defe dB~B2|AF~F2 dBAF|FEDF EGFE|
DF~F2 DEFA|d2fe dB~B2|A2FA dBAF|1 EGFE D2FE:|2 EGFE D2fe||
|:df~f2 dfaf|~g3b affe|dB~B2 ABde|fagf efde|
fgaf ~g3b|agfe dB~B2|A2FA dBAF|1 EGFE D2fe:|2 EGFE D2FE||


